!!!COM: Music21
!!!OTL: barndance_Tempest--The
!!!OMV: barndance_Tempest--The
**kern
*clefG2
*k[f#c#]
*D:
*M4/4
=1
4a
=
4dd
4a
8aL
8bJ
4a
=
4ff#
4dd
8ddL
8eeJ
4dd
=
4ee
4a
4b
4cc#
=
8ddL
8cc#J
8ddL
8eeJ
4ff#
4aa
=
4ff#
4a
8aL
8bJ
4a
=
4ff#
4dd
8ddL
8eeJ
4dd
=
4ee
4a
4b
4cc#
!!linebreak:original
=
2.dd
4ryy
=||
8ff#L
8ggJ
2.ryy
=
4aa
4ff#
4ff#
4dd
=
8eeL
8ddJ
8cc#L
8bJ
4a
8ff#L
8ggJ
=
4aa
4ff#
4ff#
4dd
=
8eeL
8ddJ
8cc#L
8bJ
4a
8bL
8cc#J
=
4dd
4a
8aL
8bJ
4a
=
4ff#
4dd
8ddL
8eeJ
4dd
!!linebreak:original
=
4ee
4a
4b
4cc#
=
2.dd
4ryy
=||
8bL
8cc#J
2.ryy
=
4dd
4ff#
4aa
4ff#
=
4bb
4gg
4.aa
8ff#
=
4gg
4ff#
4ee
4dd
=
8cc#L
8ddJ
8eeL
8cc#J
4a
8bL
8cc#J
=
4dd
4ff#
4aa
4ff#
!!linebreak:original
=
4bb
4gg
4.aa
8ff#
=
4gg
4ee
4cc#
4a
=
2.dd
4ryy
=||
8eeL
8ff#J
2.ryy
=
4gg
4ee
4cc#
4a
=
4dd
4ff#
4.aa
8ff#
=
4gg
4ee
4cc#
4a
=
8ddL
8eeJ
8ff#L
8ggJ
4.aa
8ff#
!!linebreak:original
=
4dd
4ff#
4aa
4ff#
=
4bb
4gg
4.aa
8ff#
=
4gg
4ee
4cc#
4a
=
2.dd
4ryy
=||
*-
